src/helpers/heroicons/solid/musical-note.svg

<svg width="24" height="24" viewBox="0 0 24 24" fill="none" xmlns="http://www.w3.org/2000/svg">
<path fill-rule="evenodd" clip-rule="evenodd" d="M19.9516 1.65124C20.1395 1.79297 20.25 2.01466 20.25 2.25001V5.98344C20.2503 5.99476 20.2503 6.00606 20.25 6.01732V16.3028C20.25 17.6423 19.3621 18.8194 18.0742 19.1874L16.7542 19.5645C15.1234 20.0305 13.5 18.806 13.5 17.1099C13.5 15.9701 14.2556 14.9684 15.3515 14.6553L17.6621 13.9951C18.306 13.8111 18.75 13.2225 18.75 12.5528V6.9943L9.75 9.56573V19.3028C9.75 20.6423 8.86207 21.8194 7.57416 22.1874L6.25418 22.5645C4.62337 23.0305 3 21.806 3 20.1099C3 18.9701 3.75559 17.9684 4.85153 17.6553L7.16208 16.9951C7.80603 16.8111 8.25 16.2225 8.25 15.5528V9.01659C8.24974 9.00526 8.24974 8.99395 8.25 8.98268V5.25001C8.25 4.91515 8.47198 4.62086 8.79396 4.52886L19.294 1.52886C19.5202 1.46421 19.7638 1.50952 19.9516 1.65124Z" />
</svg>

<svg xmlns="http://www.w3.org/2000/svg" viewBox="0 0 24 24" fill="currentColor" aria-hidden="true" data-slot="icon">
  <path fill-rule="evenodd" d="M19.952 1.651a.75.75 0 0 1 .298.599V16.303a3 3 0 0 1-2.176 2.884l-1.32.377a2.553 2.553 0 1 1-1.403-4.909l2.311-.66a1.5 1.5 0 0 0 1.088-1.442V6.994l-9 2.572v9.737a3 3 0 0 1-2.176 2.884l-1.32.377a2.553 2.553 0 1 1-1.402-4.909l2.31-.66a1.5 1.5 0 0 0 1.088-1.442V5.25a.75.75 0 0 1 .544-.721l10.5-3a.75.75 0 0 1 .658.122Z" clip-rule="evenodd"/>
</svg>
